X: 13
T: THE GALWAY REEL
R: reel
Z: 2006 John Chambers <jc:trillian.mit.edu>
B: "Rinnci na h-\'Eireann" Elizabeth Burchenal, ed. G.Schirmer (1925) p.70
M: 2/4
L: 1/16
Q: 1/4=112
%%slurgraces 1
K: C
GA | "C"cded cBAG | "F"Addc dcAB | "C"cded cBAG |1 "F"Ac"C"GE "G"(ED) \
                                               :|2 "F"Ac"C"GE "G"({F}ED)D2 |]
|: "C"gage {d}cBcd | "Am"ea{b}ag age^f | "Em"gage "C"{d}cBcd |1 "C"ea(ag) "G"(ed)de \
                                                            :|2 "C"ea(ag) "G"(ed)d2 |]

%%sep 2 1 500

